X: 1
T: Bay Tree, The
C: Andy Cutting
R: Waltz
M: 3/4
L: 1/8
K: G
r: 32
|: "G"B2 BB AB | "Bm"d3d BA | "C"GA1/2G1/2 FG Ad | "C/D"BA AA GA | "G"B2 BB AB | "Bm"d3d BA | "C"GA1/2G1/2 FG AB | "D"D3D GA :|
|: "G"B2 GD GB | "Am"c2 EG ce | "Bm"d2 FB dg | "C"e2 d-"D"d c2 | "G"B2 GD GB | "Am"c2 EG ce | "Bm"d2 FB dg | "C"e2 d-"D"d c2 :|
